Map-navigation-icons/i-legend.svg

<?xml version="1.0" encoding="UTF-8"?>
<svg width="24px" height="24px" viewBox="0 0 24 24" version="1.1" xmlns="http://www.w3.org/2000/svg" xmlns:xlink="http://www.w3.org/1999/xlink">
    <title>i-legend</title>
    <g id="Fleet-View-V_2" stroke="none" stroke-width="1" fill="none" fill-rule="evenodd">
        <g id="Icons-list" transform="translate(-327.000000, -539.000000)">
            <g id="i-legend" transform="translate(327.000000, 539.000000)">
                <rect id="ViewBox" x="0" y="0" width="24" height="24"></rect>
                <path d="M3.49319972,2 C3.34667661,2.0025617 3.21211217,2.0915464 3.13878913,2.23436445 L1.05572688,6.29645639 C0.981369239,6.44161409 0.981428103,6.6203909 1.05588132,6.76548652 C1.13033453,6.91058213 1.26787953,7 1.41673767,7 L5.58366219,7 C5.73244887,6.99980928 5.86986305,6.91035801 5.94421872,6.76529176 C6.01857438,6.62022552 6.01859505,6.44154443 5.94427296,6.29645639 L3.86081071,2.23436445 C3.7850775,2.08703493 3.64439625,1.99743203 3.49319972,2.00022513 L3.49319972,2 Z M3.50033047,3 L5,6 L2,6 L3.50033047,3 Z M10,4 L10,6 L13,6 L13,4 L10,4 Z M15,4 L15,6 L23,6 L23,4 L15,4 Z M1.50016,10 C1.22392926,10 1,10.2239221 1,10.500144 L1,14.499856 C1,14.7760779 1.22392926,15 1.50016,15 L6.49984,15 C6.63249068,15 6.75970833,14.9473064 6.85350653,14.8535112 C6.94730472,14.759716 7,14.6325024 7,14.499856 L7,10.500144 C7,10.2239221 6.77607074,10 6.49984,10 L1.50016,10 Z M2,11 L6,11 L6,14 L2,14 L2,11 Z M10,12 L10,14 L16,14 L16,12 L10,12 Z M17,12 L17,14 L23,14 L23,12 L17,12 Z M4,16 C2.34904,16 1,17.34904 1,19 C1,20.6512 2.34904,22 4,22 C5.65096,22 7,20.6512 7,19 C7,17.34904 5.65096,16 4,16 Z M4,17 C4.53103574,16.9980276 5.04089497,17.2081018 5.41639657,17.5836034 C5.79189817,17.959105 6.00197244,18.4689643 6,19 C6.00197244,19.5310357 5.79189817,20.040895 5.41639657,20.4163966 C5.04089497,20.7918982 4.53103574,21.0019724 4,21 C3.46896426,21.0019724 2.95910503,20.7918982 2.58360343,20.4163966 C2.20810183,20.040895 1.99802756,19.5310357 2,19 C1.99809167,18.4690058 2.20819425,17.9592084 2.58368885,17.5837589 C2.95918346,17.2083093 3.46900601,16.9982679 4,17.0002539 L4,17 Z M10,19 L10,21 L13,21 L13,19 L10,19 Z M15,19 L15,21 L23,21 L23,19 L15,19 Z" id="Shape" fill="#000000"></path>
            </g>
        </g>
    </g>
</svg>

<svg width="24" height="24" xmlns="http://www.w3.org/2000/svg">
  <g fill="none" fill-rule="evenodd">
    <path d="M0 0h24v24H0z"/>
    <path d="M3.493 2a.412.412 0 0 0-.354.234L1.056 6.296a.52.52 0 0 0 0 .47.41.41 0 0 0 .36.234h4.168a.41.41 0 0 0 .36-.235.52.52 0 0 0 0-.469L3.861 2.234A.41.41 0 0 0 3.493 2ZM3.5 3 5 6H2l1.5-3ZM10 4v2h3V4h-3Zm5 0v2h8V4h-8ZM1.5 10a.5.5 0 0 0-.5.5v4a.5.5 0 0 0 .5.5h5a.5.5 0 0 0 .5-.5v-4a.5.5 0 0 0-.5-.5h-5Zm.5 1h4v3H2v-3Zm8 1v2h6v-2h-6Zm7 0v2h6v-2h-6ZM4 16c-1.651 0-3 1.349-3 3s1.349 3 3 3 3-1.349 3-3-1.349-3-3-3Zm0 1a1.993 1.993 0 0 1 2 2 1.993 1.993 0 0 1-2 2 1.993 1.993 0 0 1-2-2 1.993 1.993 0 0 1 2-2Zm6 2v2h3v-2h-3Zm5 0v2h8v-2h-8Z" fill="#000"/>
  </g>
</svg>
